X:1
T:Brandy Tree
M:4/4
L:1/4
K:Eb
 G G C D/2C/2| B, G, G,2| G, B, C E| G D D2| C A,/2A,/2 A, C/2C/2|\
 B, G, G,3/2 E/2| E/2E/2 E F D| C3 z| G G A/2A/2 B| B F F2| G G A B|\
 B F3| E C/2C/2 C C| B, G, G,3/2 G,/2| E3/2 E/2 F D| C4|
